dist/images/socialMedia/pinterest.svg

<svg width="11" height="14" viewBox="0 0 11 14" fill="none" xmlns="http://www.w3.org/2000/svg">
<path d="M5.45898 0C1.89414 0 0 2.28262 0 4.77344C0 5.92871 0.644922 7.36836 1.67832 7.82539C1.97285 7.95742 1.93477 7.79492 2.18867 6.82754C2.20898 6.74629 2.19883 6.67773 2.13281 6.60156C0.655078 4.89277 1.84336 1.38125 5.24824 1.38125C10.174 1.38125 9.25234 8.19609 6.10391 8.19609C5.29141 8.19609 4.68711 7.55879 4.88008 6.77168C5.11113 5.83223 5.56562 4.82422 5.56562 4.14629C5.56562 2.44004 3.02402 2.69395 3.02402 4.95371C3.02402 5.65195 3.27031 6.12422 3.27031 6.12422C3.27031 6.12422 2.45273 9.425 2.30039 10.042C2.04395 11.0855 2.33594 12.7766 2.36133 12.9238C2.37656 13.0051 2.46797 13.0305 2.51621 12.9645C2.59746 12.8578 3.58516 11.4486 3.86191 10.4305C3.96348 10.0598 4.3748 8.5541 4.3748 8.5541C4.64648 9.04668 5.43359 9.45801 6.26895 9.45801C8.75723 9.45801 10.5574 7.26934 10.5574 4.55508C10.5523 1.94746 8.32559 0 5.45898 0Z" fill="white"/>
</svg>

<svg width="11" height="14" fill="none" xmlns="http://www.w3.org/2000/svg"><path d="M5.459 0C1.894 0 0 2.283 0 4.773 0 5.93.645 7.368 1.678 7.825c.295.132.257-.03.51-.997a.228.228 0 0 0-.055-.226c-1.478-1.71-.29-5.22 3.115-5.22 4.926 0 4.004 6.814.856 6.814-.813 0-1.417-.637-1.224-1.424.231-.94.686-1.948.686-2.626 0-1.706-2.542-1.452-2.542.808 0 .698.246 1.17.246 1.17l-.97 3.918c-.256 1.043.036 2.735.061 2.882.016.081.107.107.155.04.081-.106 1.07-1.515 1.346-2.534l.513-1.876c.271.493 1.059.904 1.894.904 2.488 0 4.288-2.189 4.288-4.903C10.552 1.947 8.326 0 5.46 0z" fill="#fff"/></svg>
